Origami/64x64/apps/zynaddsubfx.svg

<svg width="64" height="64" version="1.1" viewBox="0 0 64 64" xmlns="http://www.w3.org/2000/svg">
 <path d="m12.055242 7.0001838a8.000934 8.0006691 0 0 0 -4.8008621 14.44117l8.6720201 6.390521-10.582208 15.87474a8.000934 8.0006691 0 0 0 6.0860393 12.417765l40.000671 2.855422a8.000934 8.0006691 0 0 0 5.156336 -14.534918l-9.429846-6.601455 11.035341-13.491967a8.000934 8.0006691 0 0 0 -5.339934 -13.019318l-40.000669-4.2850859a8.000934 8.0006691 0 0 0 -0.796888 -0.046875z" style="opacity:.2"/>
 <path d="m12.055242 6.0001839a8.000934 8.0006691 0 0 0 -4.8008621 14.44117l8.6720201 6.390521-10.582208 15.87474a8.000934 8.0006691 0 0 0 6.0860393 12.417765l40.000671 2.855422a8.000934 8.0006691 0 0 0 5.156336 -14.534918l-9.429846-6.601455 11.035341-13.491967a8.000934 8.0006691 0 0 0 -5.339934 -13.019318l-40.000669-4.2850858a8.000934 8.0006691 0 0 0 -0.796888 -0.046875z" style="fill:#4f4f4f"/>
 <path d="M 12,48.142869 23.428573,30.999725 52,51.00006 Z" style="opacity:.2"/>
 <path d="M 12,47.142869 23.428573,29.999725 52,50.00006 Z" style="fill:#1bd9a5"/>
 <path d="m12 14.999457 40 4.285786-12.857142 15.714549z" style="opacity:.2"/>
 <path d="m12 13.999457 40 4.285786-12.857142 15.714549z" style="fill:#1cadf4"/>
 <path d="m12.054688 6a8.000934 8.0006691 0 0 0 -8.0332036 8.447266 8.000934 8.0006691 0 0 1 8.0332036 -7.447266 8.000934 8.0006691 0 0 1 0.796874 0.046875l40.001954 4.285156a8.000934 8.0006691 0 0 1 7.123046 7.488281 8.000934 8.0006691 0 0 0 -7.123046 -8.488281l-40.001954-4.285156a8.000934 8.0006691 0 0 0 -0.796874 -0.046875zm3.423828 21.501953l-10.134766 15.205078a8.000934 8.0006691 0 0 0 -1.3183594 4.908203 8.000934 8.0006691 0 0 1 1.3183594 -3.908203l10.582031-15.875-0.447265-0.330078zm32.199218 9.705078l-0.519531 0.636719 9.429688 6.601562a8.000934 8.0006691 0 0 1 3.392578 6.027344 8.000934 8.0006691 0 0 0 -3.392578 -7.027344l-8.910157-6.238281z" style="fill:#ffffff;opacity:.1"/>
 <path d="M 23.427734 30 L 12 47.142578 L 12.636719 47.1875 L 23.427734 31 L 50.408203 49.886719 L 52 50 L 23.427734 30 z" style="fill:#ffffff;opacity:.1"/>
 <path d="m12 14l1.587891 1.169922 37.660156 4.035156 0.751953-0.919922-40-4.285156z" style="fill:#ffffff;opacity:.1"/>
</svg>

<svg xmlns="http://www.w3.org/2000/svg" width="64" height="64" version="1.1" viewBox="0 0 64 64">
 <path style="opacity:0.2" d="M 12.055242,7.0001838 A 8.000934,8.0006691 0 0 0 7.2543799,21.441354 L 15.9264,27.831875 5.3441917,43.706615 A 8.000934,8.0006691 0 0 0 11.430231,56.12438 l 40.000671,2.855422 A 8.000934,8.0006691 0 0 0 56.587238,44.444884 L 47.157392,37.843429 58.192733,24.351462 A 8.000934,8.0006691 0 0 0 52.852799,11.332144 L 12.85213,7.0470581 a 8.000934,8.0006691 0 0 0 -0.796888,-0.046875 z"/>
 <path style="fill:#4f4f4f" d="M 12.055242,6.0001839 A 8.000934,8.0006691 0 0 0 7.2543799,20.441354 L 15.9264,26.831875 5.3441917,42.706615 A 8.000934,8.0006691 0 0 0 11.430231,55.12438 l 40.000671,2.855422 A 8.000934,8.0006691 0 0 0 56.587238,43.444884 L 47.157392,36.843429 58.192733,23.351462 A 8.000934,8.0006691 0 0 0 52.852799,10.332144 L 12.85213,6.0470582 a 8.000934,8.0006691 0 0 0 -0.796888,-0.046875 z"/>
 <path style="opacity:0.2" d="M 12,48.142869 23.428573,30.999725 52,51.00006 Z"/>
 <path style="fill:#1bd9a5" d="M 12,47.142869 23.428573,29.999725 52,50.00006 Z"/>
 <path style="opacity:0.2" d="M 12,14.999457 52,19.285243 39.142858,34.999792 Z"/>
 <path style="fill:#1cadf4" d="M 12,13.999457 52,18.285243 39.142858,33.999792 Z"/>
 <path style="opacity:0.1;fill:#ffffff" d="M 12.054688 6 A 8.000934 8.0006691 0 0 0 4.0214844 14.447266 A 8.000934 8.0006691 0 0 1 12.054688 7 A 8.000934 8.0006691 0 0 1 12.851562 7.046875 L 52.853516 11.332031 A 8.000934 8.0006691 0 0 1 59.976562 18.820312 A 8.000934 8.0006691 0 0 0 52.853516 10.332031 L 12.851562 6.046875 A 8.000934 8.0006691 0 0 0 12.054688 6 z M 15.478516 27.501953 L 5.34375 42.707031 A 8.000934 8.0006691 0 0 0 4.0253906 47.615234 A 8.000934 8.0006691 0 0 1 5.34375 43.707031 L 15.925781 27.832031 L 15.478516 27.501953 z M 47.677734 37.207031 L 47.158203 37.84375 L 56.587891 44.445312 A 8.000934 8.0006691 0 0 1 59.980469 50.472656 A 8.000934 8.0006691 0 0 0 56.587891 43.445312 L 47.677734 37.207031 z"/>
 <path style="fill:#ffffff;opacity:0.1" d="M 23.427734 30 L 12 47.142578 L 12.636719 47.1875 L 23.427734 31 L 50.408203 49.886719 L 52 50 L 23.427734 30 z"/>
 <path style="fill:#ffffff;opacity:0.1" d="M 12 14 L 13.587891 15.169922 L 51.248047 19.205078 L 52 18.285156 L 12 14 z"/>
</svg>
